src/Static/Positions/ks-position-25.svg

<?xml version="1.0" encoding="UTF-8"?>
<svg width="175px" height="243px" viewBox="0 0 175 243" version="1.1" xmlns="http://www.w3.org/2000/svg" xmlns:xlink="http://www.w3.org/1999/xlink">
    <title>sex-etsy-25</title>
    <defs>
        <path d="M56.8158,138.3991 L62.5012,125.0054 L48.5805,115.3679 C47.6098,114.696 46.768,113.8699 46.0795,112.9109 L40.4154,105.0277 C37.9427,104.0014 35.9974,101.8755 35.2748,99.1706 C35.1252,98.6102 35.0369,98.048 34.9993,97.4898 L24.1312,82.364 C22.5257,80.1306 21.8871,77.404 22.3324,74.6892 C22.7767,71.9744 24.2523,69.5945 26.4867,67.989 C28.2484,66.7234 30.3246,66.0535 32.4887,66.0535 C35.7992,66.0535 38.9291,67.657 40.8608,70.3435 L51.8497,85.6374 L53.1526,85.2896 C51.1951,80.4512 49.4565,75.835 47.8596,71.8014 C44.9029,61.8769 35.3121,53.8765 26.9783,56.6923 C18.6438,59.5108 10.7293,70.093 14.396,85.1367 C17.7419,98.5221 21.3955,108.2088 27.3987,118.0778 C27.8612,118.3218 28.3144,118.5872 28.7493,118.8893 L56.8158,138.3991 Z" id="path-1"></path>
        <filter x="-17.3%" y="-7.9%" width="135.4%" height="121.6%" filterUnits="objectBoundingBox" id="filter-2">
            <feMorphology radius="1.5" operator="dilate" in="SourceAlpha" result="shadowSpreadOuter1"></feMorphology>
            <feOffset dx="0" dy="2" in="shadowSpreadOuter1" result="shadowOffsetOuter1"></feOffset>
            <feGaussianBlur stdDeviation="2" in="shadowOffsetOuter1" result="shadowBlurOuter1"></feGaussianBlur>
            <feComposite in="shadowBlurOuter1" in2="SourceAlpha" operator="out" result="shadowBlurOuter1"></feComposite>
            <feColorMatrix values="0 0 0 0 0   0 0 0 0 0   0 0 0 0 0  0 0 0 1 0" type="matrix" in="shadowBlurOuter1"></feColorMatrix>
        </filter>
        <path d="M87.5814,142.3689 L83.9956,139.8864 L75.4828,159.9401 L80.0766,165.0544 L53.8276,220.2292 C50.8618,226.4631 53.5112,233.9211 59.7451,236.8869 C61.4785,237.7116 63.3066,238.1022 65.1064,238.1022 C69.7793,238.1022 74.2617,235.4699 76.4028,230.9694 L106.2314,168.2702 C108.3994,163.7136 107.6147,158.301 104.2431,154.5471 L94.8542,144.0945 C94.3872,144.1593 93.9152,144.2009 93.4367,144.2009 C91.3382,144.2009 89.3129,143.5671 87.5814,142.3689 Z" id="path-3"></path>
        <filter x="-15.5%" y="-7.4%" width="131.0%" height="118.1%" filterUnits="objectBoundingBox" id="filter-4">
            <feMorphology radius="1.5" operator="dilate" in="SourceAlpha" result="shadowSpreadOuter1"></feMorphology>
            <feOffset dx="0" dy="2" in="shadowSpreadOuter1" result="shadowOffsetOuter1"></feOffset>
            <feGaussianBlur stdDeviation="2" in="shadowOffsetOuter1" result="shadowBlurOuter1"></feGaussianBlur>
            <feComposite in="shadowBlurOuter1" in2="SourceAlpha" operator="out" result="shadowBlurOuter1"></feComposite>
            <feColorMatrix values="0 0 0 0 0   0 0 0 0 0   0 0 0 0 0  0 0 0 1 0" type="matrix" in="shadowBlurOuter1"></feColorMatrix>
        </filter>
        <circle id="path-5" cx="29.5011089" cy="29.5026849" r="22.4988215"></circle>
        <filter x="-18.9%" y="-14.4%" width="137.8%" height="137.8%" filterUnits="objectBoundingBox" id="filter-6">
            <feMorphology radius="1.5" operator="dilate" in="SourceAlpha" result="shadowSpreadOuter1"></feMorphology>
            <feOffset dx="0" dy="2" in="shadowSpreadOuter1" result="shadowOffsetOuter1"></feOffset>
            <feGaussianBlur stdDeviation="2" in="shadowOffsetOuter1" result="shadowBlurOuter1"></feGaussianBlur>
            <feComposite in="shadowBlurOuter1" in2="SourceAlpha" operator="out" result="shadowBlurOuter1"></feComposite>
            <feColorMatrix values="0 0 0 0 0   0 0 0 0 0   0 0 0 0 0  0 0 0 1 0" type="matrix" in="shadowBlurOuter1"></feColorMatrix>
        </filter>
        <path d="M104.8649,55.0263 C115.5398,50.0802 117.0364,30.6951 124.436,27.8122 C124.735,26.4353 125.1537,25.0659 125.7132,23.7195 C126.1779,22.6011 126.7197,21.5377 127.3279,20.5311 C119.7086,19.308 109.9719,20.8309 104.1288,36.8649 C98.3864,52.6225 92.1492,53.0429 87.9965,51.2014 C83.8438,49.3599 91.0139,61.444 104.8649,55.0263 Z" id="path-7"></path>
        <filter x="-21.0%" y="-17.7%" width="144.4%" height="146.3%" filterUnits="objectBoundingBox" id="filter-8">
            <feMorphology radius="1.5" operator="dilate" in="SourceAlpha" result="shadowSpreadOuter1"></feMorphology>
            <feOffset dx="0" dy="2" in="shadowSpreadOuter1" result="shadowOffsetOuter1"></feOffset>
            <feGaussianBlur stdDeviation="2" in="shadowOffsetOuter1" result="shadowBlurOuter1"></feGaussianBlur>
            <feComposite in="shadowBlurOuter1" in2="SourceAlpha" operator="out" result="shadowBlurOuter1"></feComposite>
            <feColorMatrix values="0 0 0 0 0   0 0 0 0 0   0 0 0 0 0  0 0 0 0.5 0" type="matrix" in="shadowBlurOuter1"></feColorMatrix>
        </filter>
        <circle id="path-9" cx="147.691683" cy="32.8489159" r="21.500351"></circle>
        <filter x="-19.8%" y="-15.1%" width="139.5%" height="139.5%" filterUnits="objectBoundingBox" id="filter-10">
            <feMorphology radius="1.5" operator="dilate" in="SourceAlpha" result="shadowSpreadOuter1"></feMorphology>
            <feOffset dx="0" dy="2" in="shadowSpreadOuter1" result="shadowOffsetOuter1"></feOffset>
            <feGaussianBlur stdDeviation="2" in="shadowOffsetOuter1" result="shadowBlurOuter1"></feGaussianBlur>
            <feComposite in="shadowBlurOuter1" in2="SourceAlpha" operator="out" result="shadowBlurOuter1"></feComposite>
            <feColorMatrix values="0 0 0 0 0   0 0 0 0 0   0 0 0 0 0  0 0 0 0.5 0" type="matrix" in="shadowBlurOuter1"></feColorMatrix>
        </filter>
        <path d="M148.1595,97.5097 C149.0687,97.7311 149.9974,97.2016 150.2557,96.2941 C150.5203,95.3644 149.9818,94.3964 149.0521,94.1317 C148.7928,94.0577 148.5321,94.0521 148.2831,94.0943 C147.6127,91.6651 145.8573,87.8116 144.0077,84.088 C143.4691,80.4076 142.6561,75.6012 147.6791,68.1578 C144.0346,58.8658 133.6518,53.8033 121.9364,61.4493 C118.8602,63.4563 117.0305,65.8913 115.348,68.687 L125.1742,66.064 C125.9183,65.8658 126.683,65.7652 127.4476,65.7652 C131.4232,65.7652 134.9183,68.4507 135.9456,72.2965 C137.1976,76.986 134.4017,81.818 129.7132,83.069 L92.5379,92.9925 C89.5477,94.7836 86.1092,96.6134 82.119,98.4777 C80.3319,99.3127 78.8221,100.2182 77.5502,101.1769 C75.5639,102.2721 73.912,104.0082 72.9574,106.2584 L72.652,106.978 L99.307,125.4322 C99.6948,125.7006 100.052,125.9999 100.3946,126.3125 C105.7181,119.0816 114.3565,109.0391 129.1239,99.1241 C137.0253,111.7519 145.9183,104.1726 148.1595,97.5097 Z" id="path-11"></path>
        <filter x="-11.4%" y="-9.5%" width="122.3%" height="125.9%" filterUnits="objectBoundingBox" id="filter-12">
            <feMorphology radius="1.5" operator="dilate" in="SourceAlpha" result="shadowSpreadOuter1"></feMorphology>
            <feOffset dx="0" dy="2" in="shadowSpreadOuter1" result="shadowOffsetOuter1"></feOffset>
            <feGaussianBlur stdDeviation="2" in="shadowOffsetOuter1" result="shadowBlurOuter1"></feGaussianBlur>
            <feComposite in="shadowBlurOuter1" in2="SourceAlpha" operator="out" result="shadowBlurOuter1"></feComposite>
            <feColorMatrix values="0 0 0 0 0   0 0 0 0 0   0 0 0 0 0  0 0 0 0.5 0" type="matrix" in="shadowBlurOuter1"></feColorMatrix>
        </filter>
        <path d="M64.4324,126.3425 L57.8275,141.903 L27.4369,120.778 C22.6752,117.4694 16.1312,118.6462 12.8217,123.4069 C9.5121,128.1686 10.6889,134.7116 15.4506,138.0221 L56.4506,166.5221 C58.2289,167.7584 60.3246,168.4 62.4447,168.4 C63.4183,168.4 64.3988,168.2643 65.3549,167.9879 C68.393,167.1119 70.8735,164.9127 72.1088,162.0025 L82.0641,138.5489 L64.4324,126.3425 Z" id="path-13"></path>
        <filter x="-12.0%" y="-13.1%" width="124.4%" height="134.3%" filterUnits="objectBoundingBox" id="filter-14">
            <feMorphology radius="1.5" operator="dilate" in="SourceAlpha" result="shadowSpreadOuter1"></feMorphology>
            <feOffset dx="0" dy="2" in="shadowSpreadOuter1" result="shadowOffsetOuter1"></feOffset>
            <feGaussianBlur stdDeviation="2" in="shadowOffsetOuter1" result="shadowBlurOuter1"></feGaussianBlur>
            <feComposite in="shadowBlurOuter1" in2="SourceAlpha" operator="out" result="shadowBlurOuter1"></feComposite>
            <feColorMatrix values="0 0 0 0 0   0 0 0 0 0   0 0 0 0 0  0 0 0 0.5 0" type="matrix" in="shadowBlurOuter1"></feColorMatrix>
        </filter>
        <path d="M41.5072,88.3981 L49.4733,86.2716 L38.9935,71.6862 C36.4134,68.0983 31.4164,67.279 27.8285,69.8571 C24.2406,72.4352 23.4213,77.4342 25.9994,81.0221 L35.4273,94.1437 C36.33,91.4229 38.5364,89.1908 41.5072,88.3981 Z" id="path-15"></path>
        <filter x="-34.0%" y="-25.2%" width="172.0%" height="176.5%" filterUnits="objectBoundingBox" id="filter-16">
            <feMorphology radius="1.5" operator="dilate" in="SourceAlpha" result="shadowSpreadOuter1"></feMorphology>
            <feOffset dx="0" dy="2" in="shadowSpreadOuter1" result="shadowOffsetOuter1"></feOffset>
            <feGaussianBlur stdDeviation="2" in="shadowOffsetOuter1" result="shadowBlurOuter1"></feGaussianBlur>
            <feComposite in="shadowBlurOuter1" in2="SourceAlpha" operator="out" result="shadowBlurOuter1"></feComposite>
            <feColorMatrix values="0 0 0 0 0   0 0 0 0 0   0 0 0 0 0  0 0 0 1 0" type="matrix" in="shadowBlurOuter1"></feColorMatrix>
        </filter>
        <path d="M97.9974,127.323 L60.6901,101.494 L46.0462,105.403 C45.2991,105.6012 44.5345,105.7018 43.7728,105.7018 C43.7586,105.7018 43.7447,105.7001 43.7304,105.7 L47.9466,111.568 C48.4808,112.3112 49.138,112.9567 49.89,113.4772 L88.89,140.4772 C90.2796,141.4391 91.8656,141.901 93.4369,141.901 C95.973,141.901 98.4682,140.6969 100.0209,138.4537 C102.5365,134.821 101.6302,129.8376 97.9974,127.323 Z" id="path-17"></path>
        <filter x="-17.2%" y="-16.4%" width="131.9%" height="142.4%" filterUnits="objectBoundingBox" id="filter-18">
            <feMorphology radius="1.5" operator="dilate" in="SourceAlpha" result="shadowSpreadOuter1"></feMorphology>
            <feOffset dx="0" dy="2" in="shadowSpreadOuter1" result="shadowOffsetOuter1"></feOffset>
            <feGaussianBlur stdDeviation="2" in="shadowOffsetOuter1" result="shadowBlurOuter1"></feGaussianBlur>
            <feComposite in="shadowBlurOuter1" in2="SourceAlpha" operator="out" result="shadowBlurOuter1"></feComposite>
            <feColorMatrix values="0 0 0 0 0   0 0 0 0 0   0 0 0 0 0  0 0 0 1 0" type="matrix" in="shadowBlurOuter1"></feColorMatrix>
        </filter>
        <path d="M42.1,90.6198 C38.6322,91.5456 36.5707,95.1081 37.4965,98.5768 C38.2729,101.4831 40.8998,103.402 43.7729,103.402 C44.3276,103.402 44.892,103.3297 45.4536,103.1803 L129.1206,80.8473 C132.5884,79.9215 134.6499,76.359 133.7241,72.8903 C132.7973,69.4225 129.2368,67.361 125.7671,68.2868 L42.1,90.6198 Z" id="path-19"></path>
        <filter x="-8.8%" y="-18.4%" width="117.6%" height="148.1%" filterUnits="objectBoundingBox" id="filter-20">
            <feMorphology radius="1.5" operator="dilate" in="SourceAlpha" result="shadowSpreadOuter1"></feMorphology>
            <feOffset dx="0" dy="2" in="shadowSpreadOuter1" result="shadowOffsetOuter1"></feOffset>
            <feGaussianBlur stdDeviation="2" in="shadowOffsetOuter1" result="shadowBlurOuter1"></feGaussianBlur>
            <feComposite in="shadowBlurOuter1" in2="SourceAlpha" operator="out" result="shadowBlurOuter1"></feComposite>
            <feColorMatrix values="0 0 0 0 0   0 0 0 0 0   0 0 0 0 0  0 0 0 0.5 0" type="matrix" in="shadowBlurOuter1"></feColorMatrix>
        </filter>
    </defs>
    <g id="Page-2" stroke="none" stroke-width="1" fill="none" fill-rule="evenodd">
        <g id="sex-etsy-25" transform="translate(-1.000000, -3.000000)" fill-rule="nonzero">
            <g id="Path">
                <use fill="black" fill-opacity="1" filter="url(#filter-2)" xlink:href="#path-1"></use>
                <use stroke="#1A1A1D" stroke-width="3" fill="#4E4E50" xlink:href="#path-1"></use>
            </g>
            <g id="Path">
                <use fill="black" fill-opacity="1" filter="url(#filter-4)" xlink:href="#path-3"></use>
                <use stroke="#1A1A1D" stroke-width="3" fill="#4E4E50" xlink:href="#path-3"></use>
            </g>
            <g id="Oval" transform="translate(29.501109, 29.502685) rotate(-20.763941) translate(-29.501109, -29.502685) ">
                <use fill="black" fill-opacity="1" filter="url(#filter-6)" xlink:href="#path-5"></use>
                <use stroke="#1A1A1D" stroke-width="3" fill="#4E4E50" xlink:href="#path-5"></use>
            </g>
            <g id="Path">
                <use fill="black" fill-opacity="1" filter="url(#filter-8)" xlink:href="#path-7"></use>
                <use stroke="#1A1A1D" stroke-width="3" fill="#6F2232" xlink:href="#path-7"></use>
            </g>
            <g id="Oval" transform="translate(147.691683, 32.848916) rotate(-39.322866) translate(-147.691683, -32.848916) ">
                <use fill="black" fill-opacity="1" filter="url(#filter-10)" xlink:href="#path-9"></use>
                <use stroke="#1A1A1D" stroke-width="3" fill="#6F2232" xlink:href="#path-9"></use>
            </g>
            <g id="Path">
                <use fill="black" fill-opacity="1" filter="url(#filter-12)" xlink:href="#path-11"></use>
                <use stroke="#1A1A1D" stroke-width="3" fill="#6F2232" xlink:href="#path-11"></use>
            </g>
            <g id="Path">
                <use fill="black" fill-opacity="1" filter="url(#filter-14)" xlink:href="#path-13"></use>
                <use stroke="#1A1A1D" stroke-width="3" fill="#6F2232" xlink:href="#path-13"></use>
            </g>
            <g id="Path">
                <use fill="black" fill-opacity="1" filter="url(#filter-16)" xlink:href="#path-15"></use>
                <use stroke="#1A1A1D" stroke-width="3" fill="#4E4E50" xlink:href="#path-15"></use>
            </g>
            <g id="Path">
                <use fill="black" fill-opacity="1" filter="url(#filter-18)" xlink:href="#path-17"></use>
                <use stroke="#1A1A1D" stroke-width="3" fill="#4E4E50" xlink:href="#path-17"></use>
            </g>
            <g id="Path">
                <use fill="black" fill-opacity="1" filter="url(#filter-20)" xlink:href="#path-19"></use>
                <use stroke="#1A1A1D" stroke-width="3" fill="#6F2232" xlink:href="#path-19"></use>
            </g>
        </g>
    </g>
</svg>

<svg xmlns="http://www.w3.org/2000/svg" width="175" height="243" xmlns:xlink="http://www.w3.org/1999/xlink"><title>sex-etsy-25</title><defs><path id="b" d="M56.82 138.4L62.5 125l-13.92-9.63c-.97-.67-1.8-1.5-2.5-2.46l-5.66-7.87c-2.48-1.03-4.42-3.15-5.15-5.86-.14-.56-.23-1.12-.27-1.68L24.13 82.35c-1.6-2.23-2.24-4.96-1.8-7.67.45-2.73 1.92-5.1 4.16-6.7 1.75-1.28 3.82-1.95 6-1.95 3.3 0 6.43 1.6 8.36 4.3l11 15.3 1.3-.36c-1.96-4.85-3.7-9.47-5.3-13.5-2.96-9.92-12.55-17.92-20.88-15.1-8.34 2.8-16.25 13.4-12.58 28.44 3.34 13.38 7 23.07 13 32.94.46.24.9.5 1.35.8l28.07 19.52z"/><filter id="a" width="135.4%" height="121.6%" x="-17.3%" y="-7.9%" filterUnits="objectBoundingBox"><feMorphology radius="1.5" operator="dilate" in="SourceAlpha" result="shadowSpreadOuter1"/><feOffset dy="2" in="shadowSpreadOuter1" result="shadowOffsetOuter1"/><feGaussianBlur stdDeviation="2" in="shadowOffsetOuter1" result="shadowBlurOuter1"/><feComposite in="shadowBlurOuter1" in2="SourceAlpha" operator="out" result="shadowBlurOuter1"/><feColorMatrix values="0 0 0 0 0 0 0 0 0 0 0 0 0 0 0 0 0 0 1 0" in="shadowBlurOuter1"/></filter><path id="d" d="M87.58 142.37L84 139.9l-8.52 20.04 4.6 5.1-26.25 55.2c-2.97 6.22-.32 13.68 5.92 16.65 1.73.8 3.56 1.2 5.36 1.2 4.68 0 9.16-2.63 11.3-7.13l29.83-62.7c2.17-4.56 1.38-9.97-2-13.72l-9.38-10.46c-.46.06-.93.1-1.4.1-2.1 0-4.14-.63-5.87-1.83z"/><filter id="c" width="131%" height="118.1%" x="-15.5%" y="-7.4%" filterUnits="objectBoundingBox"><feMorphology radius="1.5" operator="dilate" in="SourceAlpha" result="shadowSpreadOuter1"/><feOffset dy="2" in="shadowSpreadOuter1" result="shadowOffsetOuter1"/><feGaussianBlur stdDeviation="2" in="shadowOffsetOuter1" result="shadowBlurOuter1"/><feComposite in="shadowBlurOuter1" in2="SourceAlpha" operator="out" result="shadowBlurOuter1"/><feColorMatrix values="0 0 0 0 0 0 0 0 0 0 0 0 0 0 0 0 0 0 1 0" in="shadowBlurOuter1"/></filter><circle id="f" cx="29.501" cy="29.503" r="22.499"/><filter id="e" width="137.8%" height="137.8%" x="-18.9%" y="-14.4%" filterUnits="objectBoundingBox"><feMorphology radius="1.5" operator="dilate" in="SourceAlpha" result="shadowSpreadOuter1"/><feOffset dy="2" in="shadowSpreadOuter1" result="shadowOffsetOuter1"/><feGaussianBlur stdDeviation="2" in="shadowOffsetOuter1" result="shadowBlurOuter1"/><feComposite in="shadowBlurOuter1" in2="SourceAlpha" operator="out" result="shadowBlurOuter1"/><feColorMatrix values="0 0 0 0 0 0 0 0 0 0 0 0 0 0 0 0 0 0 1 0" in="shadowBlurOuter1"/></filter><path id="h" d="M104.86 55.03c10.68-4.95 12.18-24.33 19.58-27.22.3-1.36.7-2.73 1.27-4.08.48-1.12 1.02-2.18 1.63-3.2-7.62-1.2-17.36.3-23.2 16.34C98.4 52.62 92.15 53.04 88 51.2c-4.16-1.84 3 10.24 16.86 3.83z"/><filter id="g" width="144.4%" height="146.3%" x="-21%" y="-17.7%" filterUnits="objectBoundingBox"><feMorphology radius="1.5" operator="dilate" in="SourceAlpha" result="shadowSpreadOuter1"/><feOffset dy="2" in="shadowSpreadOuter1" result="shadowOffsetOuter1"/><feGaussianBlur stdDeviation="2" in="shadowOffsetOuter1" result="shadowBlurOuter1"/><feComposite in="shadowBlurOuter1" in2="SourceAlpha" operator="out" result="shadowBlurOuter1"/><feColorMatrix values="0 0 0 0 0 0 0 0 0 0 0 0 0 0 0 0 0 0 0.5 0" in="shadowBlurOuter1"/></filter><circle id="j" cx="147.692" cy="32.849" r="21.5"/><filter id="i" width="139.5%" height="139.5%" x="-19.8%" y="-15.1%" filterUnits="objectBoundingBox"><feMorphology radius="1.5" operator="dilate" in="SourceAlpha" result="shadowSpreadOuter1"/><feOffset dy="2" in="shadowSpreadOuter1" result="shadowOffsetOuter1"/><feGaussianBlur stdDeviation="2" in="shadowOffsetOuter1" result="shadowBlurOuter1"/><feComposite in="shadowBlurOuter1" in2="SourceAlpha" operator="out" result="shadowBlurOuter1"/><feColorMatrix values="0 0 0 0 0 0 0 0 0 0 0 0 0 0 0 0 0 0 0.5 0" in="shadowBlurOuter1"/></filter><path id="l" d="M148.16 97.5c.9.23 1.84-.3 2.1-1.2.26-.94-.28-1.9-1.2-2.17-.27-.07-.53-.08-.78-.04-.67-2.43-2.42-6.3-4.27-10-.53-3.7-1.34-8.5 3.68-15.94-3.65-9.3-14.03-14.36-25.74-6.7-3.08 2-4.9 4.43-6.6 7.23l9.83-2.64c.75-.2 1.5-.3 2.28-.3 3.97 0 7.47 2.7 8.5 6.54 1.25 4.7-1.55 9.52-6.24 10.77L92.55 93c-3 1.78-6.43 3.6-10.42 5.48-1.8.83-3.3 1.74-4.57 2.7-2 1.1-3.64 2.83-4.6 5.08l-.3.72 26.66 18.45c.4.27.75.57 1.1.88 5.32-7.22 13.96-17.26 28.72-27.18 7.9 12.63 16.8 5.05 19.04-1.6z"/><filter id="k" width="122.3%" height="125.9%" x="-11.4%" y="-9.5%" filterUnits="objectBoundingBox"><feMorphology radius="1.5" operator="dilate" in="SourceAlpha" result="shadowSpreadOuter1"/><feOffset dy="2" in="shadowSpreadOuter1" result="shadowOffsetOuter1"/><feGaussianBlur stdDeviation="2" in="shadowOffsetOuter1" result="shadowBlurOuter1"/><feComposite in="shadowBlurOuter1" in2="SourceAlpha" operator="out" result="shadowBlurOuter1"/><feColorMatrix values="0 0 0 0 0 0 0 0 0 0 0 0 0 0 0 0 0 0 0.5 0" in="shadowBlurOuter1"/></filter><path id="n" d="M64.43 126.34l-6.6 15.56-30.4-21.12c-4.75-3.3-11.3-2.13-14.6 2.63-3.32 4.77-2.14 11.3 2.62 14.62l41 28.5c1.78 1.24 3.87 1.88 6 1.88.97 0 1.95-.14 2.9-.4 3.04-.9 5.52-3.1 6.76-6l9.96-23.45-17.63-12.2z"/><filter id="m" width="124.4%" height="134.3%" x="-12%" y="-13.1%" filterUnits="objectBoundingBox"><feMorphology radius="1.5" operator="dilate" in="SourceAlpha" result="shadowSpreadOuter1"/><feOffset dy="2" in="shadowSpreadOuter1" result="shadowOffsetOuter1"/><feGaussianBlur stdDeviation="2" in="shadowOffsetOuter1" result="shadowBlurOuter1"/><feComposite in="shadowBlurOuter1" in2="SourceAlpha" operator="out" result="shadowBlurOuter1"/><feColorMatrix values="0 0 0 0 0 0 0 0 0 0 0 0 0 0 0 0 0 0 0.5 0" in="shadowBlurOuter1"/></filter><path id="p" d="M41.5 88.4l7.97-2.13L39 71.7c-2.6-3.6-7.58-4.42-11.17-1.84-3.6 2.58-4.4 7.57-1.83 11.16l9.43 13.12c.9-2.72 3.1-4.95 6.08-5.74z"/><filter id="o" width="172%" height="176.5%" x="-34%" y="-25.2%" filterUnits="objectBoundingBox"><feMorphology radius="1.5" operator="dilate" in="SourceAlpha" result="shadowSpreadOuter1"/><feOffset dy="2" in="shadowSpreadOuter1" result="shadowOffsetOuter1"/><feGaussianBlur stdDeviation="2" in="shadowOffsetOuter1" result="shadowBlurOuter1"/><feComposite in="shadowBlurOuter1" in2="SourceAlpha" operator="out" result="shadowBlurOuter1"/><feColorMatrix values="0 0 0 0 0 0 0 0 0 0 0 0 0 0 0 0 0 0 1 0" in="shadowBlurOuter1"/></filter><path id="r" d="M98 127.32L60.7 101.5l-14.65 3.9c-.75.2-1.52.3-2.28.3 0 0-.03 0-.04 0l4.22 5.87c.53.74 1.2 1.4 1.94 1.9l39 27c1.38.97 2.97 1.43 4.54 1.43 2.53 0 5.03-1.2 6.58-3.45 2.52-3.63 1.6-8.6-2.02-11.13z"/><filter id="q" width="131.9%" height="142.4%" x="-17.2%" y="-16.4%" filterUnits="objectBoundingBox"><feMorphology radius="1.5" operator="dilate" in="SourceAlpha" result="shadowSpreadOuter1"/><feOffset dy="2" in="shadowSpreadOuter1" result="shadowOffsetOuter1"/><feGaussianBlur stdDeviation="2" in="shadowOffsetOuter1" result="shadowBlurOuter1"/><feComposite in="shadowBlurOuter1" in2="SourceAlpha" operator="out" result="shadowBlurOuter1"/><feColorMatrix values="0 0 0 0 0 0 0 0 0 0 0 0 0 0 0 0 0 0 1 0" in="shadowBlurOuter1"/></filter><path id="t" d="M42.1 90.62c-3.47.93-5.53 4.5-4.6 7.96.77 2.9 3.4 4.82 6.27 4.82.56 0 1.12-.07 1.68-.22l83.67-22.33c3.47-.93 5.53-4.5 4.6-7.96-.92-3.48-4.48-5.54-7.95-4.6L42.1 90.6z"/><filter id="s" width="117.6%" height="148.1%" x="-8.8%" y="-18.4%" filterUnits="objectBoundingBox"><feMorphology radius="1.5" operator="dilate" in="SourceAlpha" result="shadowSpreadOuter1"/><feOffset dy="2" in="shadowSpreadOuter1" result="shadowOffsetOuter1"/><feGaussianBlur stdDeviation="2" in="shadowOffsetOuter1" result="shadowBlurOuter1"/><feComposite in="shadowBlurOuter1" in2="SourceAlpha" operator="out" result="shadowBlurOuter1"/><feColorMatrix values="0 0 0 0 0 0 0 0 0 0 0 0 0 0 0 0 0 0 0.5 0" in="shadowBlurOuter1"/></filter></defs><g fill="none"><g fill-rule="nonzero"><g id="Path" transform="translate(-1 -3)"><use fill="#000" filter="url(#a)" xlink:href="#b"/><use fill="#4E4E50" stroke="#1A1A1D" stroke-width="3" xlink:href="#b"/></g><g id="Path" transform="translate(-1 -3)"><use fill="#000" filter="url(#c)" xlink:href="#d"/><use fill="#4E4E50" stroke="#1A1A1D" stroke-width="3" xlink:href="#d"/></g><g id="Oval" transform="translate(-1 -3) rotate(-20.764 29.501 29.503)"><use fill="#000" filter="url(#e)" xlink:href="#f"/><use fill="#4E4E50" stroke="#1A1A1D" stroke-width="3" xlink:href="#f"/></g><g id="Path" transform="translate(-1 -3)"><use fill="#000" filter="url(#g)" xlink:href="#h"/><use fill="#6F2232" stroke="#1A1A1D" stroke-width="3" xlink:href="#h"/></g><g transform="translate(-1 -3) rotate(-39.323 147.692 32.849)"><use fill="#000" filter="url(#i)" xlink:href="#j"/><use fill="#6F2232" stroke="#1A1A1D" stroke-width="3" xlink:href="#j"/></g><g id="Path" transform="translate(-1 -3)"><use fill="#000" filter="url(#k)" xlink:href="#l"/><use fill="#6F2232" stroke="#1A1A1D" stroke-width="3" xlink:href="#l"/></g><g id="Path" transform="translate(-1 -3)"><use fill="#000" filter="url(#m)" xlink:href="#n"/><use fill="#6F2232" stroke="#1A1A1D" stroke-width="3" xlink:href="#n"/></g><g id="Path" transform="translate(-1 -3)"><use fill="#000" filter="url(#o)" xlink:href="#p"/><use fill="#4E4E50" stroke="#1A1A1D" stroke-width="3" xlink:href="#p"/></g><g id="Path" transform="translate(-1 -3)"><use fill="#000" filter="url(#q)" xlink:href="#r"/><use fill="#4E4E50" stroke="#1A1A1D" stroke-width="3" xlink:href="#r"/></g><g transform="translate(-1 -3)"><use fill="#000" filter="url(#s)" xlink:href="#t"/><use fill="#6F2232" stroke="#1A1A1D" stroke-width="3" xlink:href="#t"/></g></g></g></svg>
